icons/line/lock-closed.svg

<svg width="24" height="24" viewBox="0 0 24 24" fill="none" xmlns="http://www.w3.org/2000/svg">
<path d="M8 11H6C4.89543 11 4 11.8954 4 13V19C4 20.1046 4.89543 21 6 21H18C19.1046 21 20 20.1046 20 19V13C20 11.8954 19.1046 11 18 11H16M8 11V7C8 4.79086 9.79086 3 12 3V3C14.2091 3 16 4.79086 16 7V11M8 11H16M12 15V17" stroke="currentColor" stroke-width="2" stroke-linecap="round" stroke-linejoin="round"/>
</svg>

<svg width="24" height="24" fill="none" xmlns="http://www.w3.org/2000/svg"><path d="M8 11H6a2 2 0 00-2 2v6a2 2 0 002 2h12a2 2 0 002-2v-6a2 2 0 00-2-2h-2m-8 0V7a4 4 0 014-4v0a4 4 0 014 4v4m-8 0h8m-4 4v2" stroke="currentColor" stroke-width="2" stroke-linecap="round" stroke-linejoin="round"/></svg>
